!!!COM:	Ockeghem, Johannes
!!!CDT:	~1425-1497/02/06
!!!OPR:	Requiem
!!!ONM:	2
!!!OTL:	Kyrie
!!!AGN:	Mass; Requiem; Kyrie
!!!SCT:	Ock1013b
!!!SCA:	Ock1013b
!!!voices:	5
!!!voices-OPR:	3-4
**kern	**kern	**kern	**kern	**kern
*staff5	*staff4	*staff3	*staff2	*staff1
*Ivox	*Ivox	*Ivox	*Ivox	*Ivox
*I"Contrabassus	*I"Tenor	*I"Contratenor	*I"Discantus2	*I"Discantus1
*I'C	*I'T	*I'Ct	*I'D2	*I'D1
*>[A,B,A,C,D,C,E,F,G]	*>[A,B,A,C,D,C,E,F,G]	*>[A,B,A,C,D,C,E,F,G]	*>[A,B,A,C,D,C,E,F,G]	*>[A,B,A,C,D,C,E,F,G]
*>A	*>A	*>A	*>A	*>A
*clefF4	*clefGv2	*clefGv2	*clefG2	*clefG2
*k[b-]	*k[b-]	*k[b-]	*k[]	*k[b-]
*M2/1	*M2/1	*M2/1	*M2/1	*M2/1
*met(C|)	*met(C|)	*met(C|)	*met(C|)	*met(C|)
!!incipit: 6
!!section: Kyrie I/III
!!!OMD: Kyrie I/III
=1-	=1-	=1-	=1-	=1-
0r	[0F	[0c	0r	[0f
=2	=2	=2	=2	=2
0r	0F]	0c]	0r	0f]
=3	=3	=3	=3	=3
0r	[0c	[0e-	0r	0g
=4	=4	=4	=4	=4
0r	1c]	0e-]	0r	0a
.	1B-	.	.	.
=5	=5	=5	=5	=5
0r	[0G	[0d	0r	[0b-
=6	=6	=6	=6	=6
0r	0G]	0d]	0r	0b-]
=7	=7	=7	=7	=7
0r	0F	0D	0r	0a
=8	=8	=8	=8	=8
0r	1G	1E	0r	1g
.	1B-	1G	.	[1g
=9	=9	=9	=9	=9
0r	0A	0D	0r	1g]
.	.	.	.	1f#i
=10	=10	=10	=10	=10
0r	1G	[0d	0r	0g
.	[1B-	.	.	.
=11	=11	=11	=11	=11
0r	1B-]	0d]	0r	0r
.	1A	.	.	.
=12	=12	=12	=12	=12
0r	0F	0c	0r	[0a
=13	=13	=13	=13	=13
0r	0c	0e	0r	0a]
=14	=14	=14	=14	=14
0r	1B-	1d	0r	1g
.	1G	1B-	.	1e
=15	=15	=15	=15	=15
0r	0A	0c	0r	0f
=16	=16	=16	=16	=16
0r	0G	1.B-	0r	[0e
.	.	2A/	.	.
=17	=17	=17	=17	=17
0r	0C	0c	0r	0e]
=18	=18	=18	=18	=18
0r	1D	1r	0r	1f
.	1C	[1c	.	[1g
=19	=19	=19	=19	=19
0r	1E	1c]	0r	1g]
.	1D	[1d	.	[1a
=20	=20	=20	=20	=20
0r	0F	1d]	0r	1a]
.	.	[1c	.	[1f
=21	=21	=21	=21	=21
0r	0G	1c]	0r	2f/]
.	.	.	.	2d/
.	.	1Bni	.	1e
=22	=22	=22	=22	=22
0r	0Fl	0cl	0r	0fl
!!LO:LB:i:g=z
=23||	=23||	=23||	=23||	=23||
*>B	*>B	*>B	*>B	*>B
*clefF4	*clefGv2	*clefGv2	*clefG2	*clefG2
*k[b-]	*k[b-]	*k[b-]	*k[]	*k[b-]
*M2/1	*M2/1	*M2/1	*M2/1	*M2/1
*met(C|)	*met(C|)	*met(C|)	*met(C|)	*met(C|)
!!section: Kyrie II
!!!OMD: Kyrie II
0r	0r	0r	1.f	[0f
.	.	.	2g/	.
=24	=24	=24	=24	=24
0r	0r	0r	1a	0f]
.	.	.	1a	.
=25	=25	=25	=25	=25
0r	0r	0r	1.b-	0g
.	.	.	4a/	.
.	.	.	4g/	.
=26	=26	=26	=26	=26
0r	0r	0r	0f	0a
=27	=27	=27	=27	=27
0r	0r	0r	1.g	[0b-
.	.	.	4f/	.
.	.	.	4e/	.
=28	=28	=28	=28	=28
0r	0r	0r	1d	1b-]
.	.	.	[1b-i	2a/
.	.	.	.	2g/
=29	=29	=29	=29	=29
0r	0r	0r	2b-\]	0f
.	.	.	2a/	.
.	.	.	[1a	.
=30	=30	=30	=30	=30
0r	0r	0r	2a/]	1g
.	.	.	2g/	.
.	.	.	[1g	1b-
=31	=31	=31	=31	=31
0r	0r	0r	1g]	0a
.	.	.	1f#i	.
=32	=32	=32	=32	=32
0r	0r	0r	0g	1g
.	.	.	.	[1g
=33	=33	=33	=33	=33
0r	0r	0r	1r	1g]
.	.	.	1a	1f#i
=34	=34	=34	=34	=34
0r	0r	0r	1g	0g
.	.	.	1e	.
=35	=35	=35	=35	=35
0r	0r	0r	0f	1r
.	.	.	.	1a
=36	=36	=36	=36	=36
0r	0r	0r	1e	1g
.	.	.	[1e	1e
=37	=37	=37	=37	=37
0r	0r	0r	1e]	1.f
.	.	.	1d	.
.	.	.	.	4e/
.	.	.	.	4d/
=38	=38	=38	=38	=38
0r	0r	0r	1.e	1.c
.	.	.	2f/	2d/
=39	=39	=39	=39	=39
0r	0r	0r	1g	1e
.	.	.	[1a	[1f
=40	=40	=40	=40	=40
0r	0r	0r	1a]	2f/]
.	.	.	.	2e/
.	.	.	[1f	1f
=41	=41	=41	=41	=41
0r	0r	0r	2f/]	0g
.	.	.	2d/	.
.	.	.	2.e/	.
.	.	.	4d/	.
=42	=42	=42	=42	=42
!	!	!	!	!LO:TX:Z=14:t=[da capo mm. 1-22]
0r	0r	0r	0fl	0fl
!!LO:LB:i:g=z
=43||	=43||	=43||	=43||	=43||
*>C	*>C	*>C	*>C	*>C
*clefF4	*clefGv2	*clefGv2	*clefG2	*clefG2
*k[b-]	*k[b-]	*k[b-]	*k[b-]	*k[b-]
*M2/1	*M2/1	*M2/1	*M2/1	*M2/1
*met(C|)	*met(C|)	*met(C|)	*met(C|)	*met(C|)
!!section: Christe I/III
!!!OMD: Christe I/III
0r	0r	0r	1.g	[0b-
.	.	.	4f/	.
.	.	.	4e/	.
=44	=44	=44	=44	=44
0r	0r	0r	1d	0b-_
.	.	.	[1g	.
=45	=45	=45	=45	=45
0r	0r	0r	1g]	0b-_
.	.	.	1d	.
=46	=46	=46	=46	=46
0r	0r	0r	1.g	0b-]
.	.	.	2a/	.
=47	=47	=47	=47	=47
0r	0r	0r	0f	0a
=48	=48	=48	=48	=48
0r	0r	0r	0b-	1g
.	.	.	.	1e
=49	=49	=49	=49	=49
0r	0r	0r	0a	0f
=50	=50	=50	=50	=50
0r	0r	0r	1g	1g
.	.	.	[1dd	[1b-
=51	=51	=51	=51	=51
0r	0r	0r	1dd]	2b-\]
.	.	.	.	2a/
.	.	.	1cc	[1a
=52	=52	=52	=52	=52
0r	0r	0r	0b-	1a]
.	.	.	.	1g
=53	=53	=53	=53	=53
0r	0r	0r	1a	0a
.	.	.	1cc	.
=54	=54	=54	=54	=54
0r	0r	0r	1.b-	0g
.	.	.	4a/	.
.	.	.	4g/	.
=55	=55	=55	=55	=55
0r	0r	0r	1.a	0f
.	.	.	4g/	.
.	.	.	4f/	.
=56	=56	=56	=56	=56
0r	0r	0r	1g	1.e
.	.	.	1c	.
.	.	.	.	2f/
=57	=57	=57	=57	=57
0r	0r	0r	1r	1g
.	.	.	[1cc	[1a
=58	=58	=58	=58	=58
0r	0r	0r	1cc]	1a]
.	.	.	1a	[1f
=59	=59	=59	=59	=59
0r	0r	0r	0g	1f]
.	.	.	.	1e
=60	=60	=60	=60	=60
0r	0r	0r	0fl	0fl
!!LO:LB:i:g=z
=61||	=61||	=61||	=61||	=61||
*>D	*>D	*>D	*>D	*>D
*clefF4	*clefGv2	*clefGv2	*clefG2	*clefG2
*k[b-]	*k[b-]	*k[b-]	*k[b-]	*k[b-]
*M2/1	*M2/1	*M2/1	*M2/1	*M2/1
*met(C|)	*met(C|)	*met(C|)	*met(C|)	*met(C|)
!!section: Christe II
!!!OMD: Christe II
0r	1.G	[0d	0r	[0b-
.	2F/	.	.	.
=62	=62	=62	=62	=62
0r	1G	0d_	0r	0b-_
.	1D	.	.	.
=63	=63	=63	=63	=63
0r	1G	0d_	0r	0b-_
.	1A	.	.	.
=64	=64	=64	=64	=64
0r	1.B-	0d]	0r	0b-]
.	4A/	.	.	.
.	4G/	.	.	.
=65	=65	=65	=65	=65
0r	0F	0D	0r	0a
=66	=66	=66	=66	=66
0r	0B-	0d	0r	1g
.	.	.	.	[1g
=67	=67	=67	=67	=67
0r	0A	0c	0r	1g]
.	.	.	.	1f
=68	=68	=68	=68	=68
0r	[0G	1B-	0r	[0g
.	.	[1e-	.	.
=69	=69	=69	=69	=69
0r	1G]	1e-]	0r	0g]
.	1F	[1d	.	.
=70	=70	=70	=70	=70
0r	0E	1d]	0r	1r
.	.	1c	.	[1g
=71	=71	=71	=71	=71
0r	0D	1B-	0r	2g/]
.	.	.	.	2f/
.	.	[1d	.	1f
=72	=72	=72	=72	=72
0r	1E	2d\]	0r	1g
.	.	2c\	.	.
.	1C	[1c	.	1e
=73	=73	=73	=73	=73
0r	0D	1c	0r	0f
.	.	1Bni	.	.
=74	=74	=74	=74	=74
0r	0C	0c	0r	1.e
.	.	.	.	2f/
=75	=75	=75	=75	=75
0r	0c	0C	0r	1g
.	.	.	.	[1a
=76	=76	=76	=76	=76
0r	0F	0D	0r	2a/]
.	.	.	.	2f/
.	.	.	.	[1f
=77	=77	=77	=77	=77
0r	0G	0C	0r	2f/]
.	.	.	.	2d/
.	.	.	.	1e
=78	=78	=78	=78	=78
!	!	!	!	!LO:TX:Z=25:t=[da capo mm. 43-60]
0r	0Fl	0cl	0r	0fl
!!LO:LB:i:g=z
=79||	=79||	=79||	=79||	=79||
*>E	*>E	*>E	*>E	*>E
*clefF4	*clefGv2	*clefGv2	*clefG2	*clefG2
*k[b-]	*k[b-]	*k[b-]	*k[b-]	*k[b-]
*M2/1	*M2/1	*M2/1	*M2/1	*M2/1
*met(C|)	*met(C|)	*met(C|)	*met(C|)	*met(C|)
!!section: Kyrie IV
!!!OMD: Kyrie IV
0r	[0F	0c	0r	[0f
=80	=80	=80	=80	=80
0r	1F]	0d	0r	0f]
.	1D	.	.	.
=81	=81	=81	=81	=81
0r	0E	1B-	0r	0g
.	.	1G	.	.
=82	=82	=82	=82	=82
0r	0F	0D	0r	0a
=83	=83	=83	=83	=83
0r	1.G	[0d	0r	[0b-
.	2F/	.	.	.
=84	=84	=84	=84	=84
0r	1D	0d_	0r	0b-]
.	1E	.	.	.
=85	=85	=85	=85	=85
0r	0F	0d_	0r	0a
=86	=86	=86	=86	=86
0r	1G	0d]	0r	1g
.	1B-	.	.	[1g
=87	=87	=87	=87	=87
0r	0A	0c	0r	1g]
.	.	.	.	1f#i
=88	=88	=88	=88	=88
0r	[0G	0d	0r	0g
=89	=89	=89	=89	=89
0r	0G]	0e	0r	1r
.	.	.	.	[1b-
=90	=90	=90	=90	=90
0r	1F	1f	0r	2b-\]
.	.	.	.	2a/
.	1A	1F	.	1a
=91	=91	=91	=91	=91
0r	1B-	1E	0r	1g
.	[1c	1C	.	1e
=92	=92	=92	=92	=92
0r	1c]	0D	0r	0f
.	1Bni	.	.	.
=93	=93	=93	=93	=93
0r	0c	0C	0r	0e
=94	=94	=94	=94	=94
0r	0d	0BB-	0r	1r
.	.	.	.	1f
=95	=95	=95	=95	=95
0r	0c	1r	0r	1g
.	.	[1F	.	[1a
=96	=96	=96	=96	=96
0r	1A	1F]	0r	2a/]
.	.	.	.	2f/
.	1B-	1BB-	.	[1f
=97	=97	=97	=97	=97
0r	0G	0C	0r	1f]
.	.	.	.	1e
=98	=98	=98	=98	=98
0r	0Fl	0cl	0r	0fl
!!LO:LB:i:g=z
=99||	=99||	=99||	=99||	=99||
*>F	*>F	*>F	*>F	*>F
*clefF4	*clefGv2	*clefGv2	*clefG2	*clefG2
*k[b-]	*k[b-]	*k[b-]	*k[b-]	*k[b-]
*M2/1	*M2/1	*M2/1	*M2/1	*M2/1
*met(C|)	*met(C|)	*met(C|)	*met(C|)	*met(C|)
!!section: Kyrie V
!!!OMD: Kyrie V
0r	0r	0r	0r	0f
=100	=100	=100	=100	=100
0r	0r	0r	0r	0g
=101	=101	=101	=101	=101
0r	0r	0r	0f	0a
=102	=102	=102	=102	=102
0r	0r	0r	0g	0b-
=103	=103	=103	=103	=103
0r	0r	0r	0a	0a
=104	=104	=104	=104	=104
0r	0r	0r	0b-	1g
.	.	.	.	1e
=105	=105	=105	=105	=105
0r	0r	0r	0a	0f
=106	=106	=106	=106	=106
0r	0r	0r	1g	1r
.	.	.	1e	1g
=107	=107	=107	=107	=107
0r	0r	0r	0f	0a
=108	=108	=108	=108	=108
0r	0r	0r	1r	1g
.	.	.	1g	1e
=109	=109	=109	=109	=109
0r	0r	0r	0a	0f
=110	=110	=110	=110	=110
0r	0r	0r	1g	1e
.	.	.	1e	[1e
=111	=111	=111	=111	=111
0r	0r	0r	0f	2e/]
.	.	.	.	2c/
.	.	.	.	1d
=112	=112	=112	=112	=112
0r	0r	0r	1e	0e
.	.	.	[1e	.
=113	=113	=113	=113	=113
0r	0r	0r	2e/]	1r
.	.	.	2c/	.
.	.	.	1d	1f
=114	=114	=114	=114	=114
0r	0r	0r	0e	1e
.	.	.	.	[1g
=115	=115	=115	=115	=115
0r	0r	0r	0c	2g/]
.	.	.	.	2f/
.	.	.	.	[1a
=116	=116	=116	=116	=116
0r	0r	0r	1d	1a]
.	.	.	[1f	1f
=117	=117	=117	=117	=117
0r	0r	0r	1f]	0g
.	.	.	1e	.
=118	=118	=118	=118	=118
0r	0r	0r	0fl	0fl
!!LO:LB:i:g=z
=119||	=119||	=119||	=119||	=119||
*>G	*>G	*>G	*>G	*>G
*clefF4	*clefGv2	*clefGv2	*clefG2	*clefG2
*k[b-]	*k[b-]	*k[b-]	*k[b-]	*k[b-]
*M2/1	*M2/1	*M2/1	*M2/1	*M2/1
*met(C|)	*met(C|)	*met(C|)	*met(C|)	*met(C|)
!!section: Kyrie VI
!!!OMD: Kyrie VI
!	!	!LO:TX:Z=18:t=[Contratenor becomes Contraltus]	!	!
0r	0r	0c	0r	0cc
=120	=120	=120	=120	=120
0r	0r	1d	0r	1b-
.	.	[1f	.	1a
=121	=121	=121	=121	=121
0r	0r	1f]	0r	0g
.	.	1e	.	.
=122	=122	=122	=122	=122
0r	0r	0f	0r	0f
=123	=123	=123	=123	=123
0r	0c	0e	0r	1r
.	.	.	.	1a
=124	=124	=124	=124	=124
0r	1B-	1r	0r	1g
.	1c	1A	.	[1cc
=125	=125	=125	=125	=125
0r	0d	0G	0r	1cc]
.	.	.	.	1bni
=126	=126	=126	=126	=126
0r	0c	0A	0r	[0cc
=127	=127	=127	=127	=127
0r	0e-i	0c	0r	0cc]
=128	=128	=128	=128	=128
0r	1d	0G	0r	0dd
.	1B-	.	.	.
=129	=129	=129	=129	=129
0r	1c	0r	0r	1cc
.	1d	.	.	[1b-
=130	=130	=130	=130	=130
0r	0A	0c	0r	2b-\]
.	.	.	.	2a/
.	.	.	.	[1a
=131	=131	=131	=131	=131
0r	0B-	[0d	0r	1a]
.	.	.	.	1g
=132	=132	=132	=132	=132
[0D	0A	0d_	0r	0a
=133	=133	=133	=133	=133
0D]	0F	0d]	0r	0r
=134	=134	=134	=134	=134
[0E	1G	0B-	0r	[0g
.	1E	.	.	.
=135	=135	=135	=135	=135
0E]	0G	0c	0r	0g]
=136	=136	=136	=136	=136
[0D	[0A	[0d	0r	[0f
=137	=137	=137	=137	=137
0D]	1A]	0d]	0r	1f]
.	1B-	.	.	2e/
.	.	.	.	2d/
=138	=138	=138	=138	=138
[0C	[0c	[0G	0r	[0e
=139	=139	=139	=139	=139
0C]	0c]	0G]	0r	0e]
=140	=140	=140	=140	=140
0D	0A	0r	0r	0f
=141	=141	=141	=141	=141
1E	0G	1.c	0r	[0g
[1C	.	.	.	.
.	.	2d\	.	.
=142	=142	=142	=142	=142
1C]	0c	1e	0r	1g]
[1F	.	[1f	.	[1a
=143	=143	=143	=143	=143
1F]	1A	1f]	0r	1a]
1BB-	1B-	1d	.	[1f
=144	=144	=144	=144	=144
0C	0G	0c	0r	1f]
.	.	.	.	1e
=145	=145	=145	=145	=145
[0c	[0F	[0A	0r	[0f
=146	=146	=146	=146	=146
0c]	0F]	0A]	0r	0f_
=147	=147	=147	=147	=147
[0F	[0A	[0c	0r	0f_
=148	=148	=148	=148	=148
0F]	0A]	0c]	0r	0f_
=149	=149	=149	=149	=149
[0BB-	[0B-	[0d	0r	0f_
=150	=150	=150	=150	=150
0BB-]	1B-]	0d]	0r	0f]
.	1G	.	.	.
=151	=151	=151	=151	=151
[0E-	[0G	[0B-	0r	[0g
=152	=152	=152	=152	=152
1E-]	0G_	0B-]	0r	1g]
1C	.	.	.	1e
=153	=153	=153	=153	=153
[0C	0G_	[0c	0r	[0e
=154	=154	=154	=154	=154
0C]	0G]	0c]	0r	0e]
=155	=155	=155	=155	=155
0Fl	0Fl	0cl	0r	0fl
==	==	==	==	==
*-	*-	*-	*-	*-
!!!RDF**kern: l=long note in original notation
!!!RDF**kern: i=editorial accidental
!!!RDF**kern: V=start of tuplet marker
!!!RDF**kern: Z=end of tuplet marker
!!!ENC:	Chris Gage 07-02-2012
!!!END:	2012/10/12/
!!!EED:	Jesse Rodin
!!!EEV:	2012/10/13/
!!!ONB:	Translated from MusicXML and edited on 2012/10/13/ by Craig Sapp
!!muse2ps: T^@{OPR}^u^@{ONM}{ .}@{OTL}^C^@{COM}^i2I150v85,85,85,85,130Q16
